X:1
T:Title
%%score { ( 1 3 ) | ( 2 4 ) }
L:1/8
M:4/4
K:Eb
V:1 treble nm="Grand Piano"
V:3 treble 
V:2 bass 
V:4 bass 
V:1
 z4 z2[Q:1/4=100] EF | GGGA GFEG | [GB]4 G2 BB | cccc cBAG | [DF]6 EF | GGGA GFEG | %6
 B4 c2 [Ec][Ec] | BBE[CEA] [B,EG]2 [A,DF]2 |[M:3/4] [G,E]6 |[M:1/4] [B,EG][EB] | %10
[M:4/4] [Ge]4 B2 z2 | [Ec]4 [Ee]2 z2 | [EB][EB][GB][Ac] [GB]GFE | [EG]4 [DF]2 EG | [GB]4 [EG]2 z2 | %15
[M:17/16] [Ec]/-[Ec]/-[Ec]/-[Ec]/-[Ec]-<[Ec][Ee]/-[Ee]-<[Ee] z/ z/ z |[M:4/4] BBBc BG[A,DF][G,E] | %17
[M:7/8] [A,DF]- [A,DF]3 [G,E]3 |] %18
V:2
 z4 z2 [E,G,][E,A,E] | [E,B,E][E,B,E][E,B,E][E,CE] [E,B,E][E,A,E][E,G,][E,B,E] | %2
 [E,E]4 [E,B,E]2 [E,G,E][E,G,E] | [A,E][A,E][A,E][A,E] [A,E][G,B,E][F,B,D][E,B,E] | %4
 [B,,B,]6 [E,G,][E,A,E] | [E,B,E][E,B,E][E,B,E][E,CE] [E,B,E][E,A,E][E,G,][E,B,E] | %6
 [G,B,E]4 [A,E]2 [A,,A,][A,,A,] | [E,G,E][E,G,E][C,G,]A,, B,,2 B,,2 |[M:3/4] E,6 | %9
[M:1/4] E,[E,G,] |[M:4/4] z4 E2 z2 | [A,,A,]A,,A,,A,, A,,A,,[A,,B,][C,A,] | %12
 [E,G,][E,G,][E,B,][E,E] [E,E][E,B,E][E,A,D][E,G,] | [B,,B,]4 [B,,B,]2 [E,G,][E,B,E] | %14
 [E,E]E,E,E, E,E,[E,G,E][E,G,E] |[M:17/16] [A,,A,]A,,A,,A,,A,,A,,3/2[A,,B,][C,A,] | %16
[M:4/4] [E,G,E][E,G,E][E,G,E][E,A,E] [E,G,E][E,B,E]B,,C, |[M:7/8] B,,- B,,3 E,3 |] %18
V:3
 x8 | x8 | x8 | x8 | x8 | x8 | x8 | x8 |[M:3/4] x6 |[M:1/4] x2 |[M:4/4] z B,B,B, z G,BB | %11
 z A,A,A, CC[Ed][Ec] | x8 | x8 | z EEE B,B,BB |[M:17/16] z A,A,A,CC3/2[Ed][Ec] |[M:4/4] x8 | %17
[M:7/8] x7 |] %18
V:4
 x8 | x8 | x8 | x8 | x8 | x8 | x8 | x8 |[M:3/4] x6 |[M:1/4] x2 | %10
[M:4/4] [E,B,]E,E,E, [E,G,]E,[E,G,E][E,G,E] | x8 | x8 | x8 | x8 |[M:17/16] x17/2 |[M:4/4] x8 | %17
[M:7/8] x7 |] %18

